Newaita-dark/.DP/32/youtube-indicator-downloading-light.svg

<svg xmlns="http://www.w3.org/2000/svg" xmlns:xlink="http://www.w3.org/1999/xlink" width="32px" height="32px" viewBox="0 0 32 32" version="1.1">
<g id="surface1">
<path style=" stroke:none;fill-rule:nonzero;fill:rgb(93.333334%,93.333334%,93.333334%);fill-opacity:1;" d="M 15.839844 5.816406 C 15.839844 5.816406 7.175781 5.816406 5.011719 6.386719 C 3.847656 6.707031 2.890625 7.664062 2.570312 8.847656 C 2 11.015625 2 15.507812 2 15.507812 C 2 15.507812 2 20.019531 2.570312 22.164062 C 2.890625 23.347656 3.824219 24.285156 5.011719 24.605469 C 6.109375 24.902344 8.839844 25.050781 11.28125 25.121094 L 9.757812 23.382812 C 9.230469 22.777344 9.152344 21.910156 9.445312 21.261719 C 9.738281 20.617188 10.445312 20.105469 11.246094 20.105469 L 13.242188 20.105469 L 13.242188 10.832031 L 13.242188 10.855469 C 13.222656 9.414062 14.398438 8.203125 15.835938 8.183594 C 17.304688 8.160156 18.53125 9.386719 18.511719 10.855469 L 18.511719 10.832031 L 18.511719 20.105469 L 20.507812 20.105469 C 21.308594 20.105469 22.011719 20.617188 22.308594 21.261719 C 22.601562 21.910156 22.523438 22.777344 21.996094 23.382812 L 20.472656 25.125 C 22.902344 25.050781 25.589844 24.910156 26.667969 24.625 C 27.855469 24.308594 28.789062 23.371094 29.105469 22.1875 C 29.675781 20.019531 29.675781 15.527344 29.675781 15.527344 C 29.675781 15.527344 29.699219 11.015625 29.105469 8.847656 C 28.789062 7.664062 27.855469 6.730469 26.667969 6.410156 C 24.503906 5.816406 15.839844 5.816406 15.839844 5.816406 Z M 15.878906 10.816406 C 15.878906 10.824219 15.878906 10.828125 15.878906 10.832031 C 15.878906 10.828125 15.878906 10.824219 15.878906 10.816406 Z M 15.878906 21.417969 C 15.878906 22.144531 15.285156 22.738281 14.558594 22.738281 L 12.691406 22.738281 L 14.839844 25.191406 C 15.449219 25.195312 15.839844 25.195312 15.839844 25.195312 C 15.839844 25.195312 16.257812 25.195312 16.914062 25.191406 L 19.058594 22.738281 L 17.191406 22.738281 C 16.464844 22.738281 15.878906 22.144531 15.878906 21.417969 Z M 15.878906 21.417969 "/>
<path style=" stroke:none;fill-rule:nonzero;fill:rgb(93.333334%,93.333334%,93.333334%);fill-opacity:1;" d="M 15.855469 9.5 C 15.128906 9.511719 14.550781 10.105469 14.558594 10.832031 L 14.558594 21.417969 L 11.246094 21.417969 C 10.679688 21.417969 10.375 22.089844 10.75 22.515625 L 15.378906 27.808594 C 15.644531 28.105469 16.109375 28.105469 16.371094 27.808594 L 21.003906 22.515625 C 21.378906 22.089844 21.074219 21.417969 20.507812 21.417969 L 17.191406 21.417969 L 17.191406 10.832031 C 17.199219 10.480469 17.058594 10.136719 16.808594 9.886719 C 16.554688 9.632812 16.214844 9.496094 15.855469 9.5 Z M 15.855469 9.5 "/>
</g>
</svg>

<svg xmlns="http://www.w3.org/2000/svg" width="32" height="32"><g fill="#bdbdbd"><path d="M15.84 5.816s-8.664 0-10.832.57A3.545 3.545 0 0 0 2.57 8.853C2 11.016 2 15.508 2 15.508s0 4.512.57 6.656a3.466 3.466 0 0 0 2.438 2.438c1.101.3 3.828.449 6.273.52l-1.523-1.74c-.528-.6-.606-1.472-.313-2.12.293-.645 1-1.16 1.801-1.16h1.996v-9.266.016c-.02-1.438 1.156-2.649 2.594-2.668 1.469-.024 2.695 1.203 2.676 2.668v-.016 9.266h1.996c.8 0 1.508.515 1.8 1.16.294.648.215 1.52-.312 2.12l-1.523 1.743c2.425-.074 5.117-.215 6.195-.5a3.46 3.46 0 0 0 2.437-2.438c.57-2.167.57-6.656.57-6.656s.024-4.515-.57-6.68a3.465 3.465 0 0 0-2.437-2.44C24.5 5.815 15.84 5.815 15.84 5.815zm.035 5v0zm0 10.602c0 .73-.59 1.32-1.316 1.32H12.69l2.149 2.453c.61.004 1 .004 1 .004s.418 0 1.074-.004l2.148-2.453h-1.87c-.727 0-1.317-.59-1.317-1.32zm0 0"/><path d="M15.855 9.5a1.32 1.32 0 0 0-1.296 1.336v10.582h-3.313a.662.662 0 0 0-.496 1.098l4.629 5.293c.266.3.73.3.996 0l4.629-5.293a.662.662 0 0 0-.496-1.098H17.19V10.836c.008-.36-.132-.7-.382-.953a1.321 1.321 0 0 0-.954-.383zm0 0"/></g></svg>
